X: 1
T: the Steeple Clock
O: arr. Terry Tully
R: reel
S: handwritten MS from Mary Ellen Scannel 2016-11-13
Z: 2016 John Chambers <jc:trillian.mit.edu>
M: C|
L: 1/8
K: A
e "A"|:\
"A"a2ec "D"defg | "A"afec "E7"dBB2 |\
[1 "A"a2ec "D"defg | "E7"afed "A"cAA2 :|\
[2 "A7"caae "F#m"aeca | "Bm"fd"E7"Bd "A"cA A |]
"B"|: B |\
"A"c2Ac "D"d2cd | "A"efec "E7"dBB2 |\
[1 "A"c2Ac "D"d2cd | "E7"efed "A"cAA :|\
[2 "A7"caae "F#m"aeca | "Bm"fd"E7"Bd "A"cA A |]
